X:03
T:Untitled. JBu.03
O:England,South Yorkshire
S:Joshua Burnett’s MS,c1835,S.Yorkshire
M:6/8
L:1/8
Q:3/8=110
R:jig
Z:vmp.R.Greig.2010
K:A
d|”$”c2B c<ec|d<fd c<ec|B<dB A<cA|BGEE2d|
c2B c<ec|d<fd c<ec|B<df dBG|A2AA2:|
e|edc agf|fee e2f|edc fed|d3c2e|
edc agf|feee2a|gfe fed|efd cd!D.C.!B|]

